svgs/sharp-solid/1.svg

<svg xmlns="http://www.w3.org/2000/svg" viewBox="0 0 256 512"><!--! Font Awesome Pro 6.6.0 by @fontawesome - https://fontawesome.com License - https://fontawesome.com/license (Commercial License) Copyright 2024 Fonticons, Inc. --><path d="M104 32l8 0 16 0 32 0 0 32 0 352 64 0 32 0 0 64-32 0-96 0-96 0L0 480l0-64 32 0 64 0 0-307.2L7.1 156.2 0 160 0 87.5 96.9 35.8 104 32z"/></svg>

<svg xmlns="http://www.w3.org/2000/svg" viewBox="0 0 256 512"><!--! Font Awesome Pro 6.4.2 by @fontawesome - https://fontawesome.com License - https://fontawesome.com/license (Commercial License) Copyright 2023 Fonticons, Inc. --><path d="M104 32h8 16 32V64 416h64 32v64H224 128 32 0V416H32 96V108.8L7.1 156.2 0 160V87.5L96.9 35.8 104 32z"/></svg>
